!! J.S. Bach, Die Kunst der Fuge; Fuga 9 in d minor; BWV 1080.
!! Encoded from "Bach; Die Kunst der Fuge", (Carl Czerny, ed.)
!! New York: C.F. Peters Co., pp.28-31; in four voices.
!! Performance duration: 3:19; performance tempo: 156.8 quarter-notes per min.
!! (Davitt Moroney, harpsichord, "Bach, 'Die Kunst der Fuge'",
!! Harmonia Mundi No. HMC 1169.70)
**kern	**kern	**kern	**kern
*d:	*d:	*d:	*d:
*M2/2	*M2/2	*M2/2	*M2/2
*MM156.8	*MM156.8	*MM156.8	*MM156.8
=1	=1	=1	=1
1r	1r	4r	1r
.	.	4d	.
.	.	2dd	.
=2	=2	=2	=2
1r	1r	4dd	1r
.	.	8cc#	.
.	.	8bn	.
.	.	8a	.
.	.	8g	.
.	.	8f	.
.	.	8e	.
=3	=3	=3	=3
1r	1r	8d	1r
.	.	8c#	.
.	.	8d	.
.	.	8e	.
.	.	8f	.
.	.	8d	.
.	.	8e	.
.	.	8f	.
=4	=4	=4	=4
1r	1r	8g	1r
.	.	8f#	.
.	.	8g	.
.	.	8a	.
.	.	8b-	.
.	.	8g	.
.	.	8a	.
.	.	8b-	.
=5	=5	=5	=5
1r	1r	4b-M	1r
.	.	4a	.
.	.	8r	.
.	.	8a	.
.	.	8g	.
.	.	8a	.
=6	=6	=6	=6
1r	1r	8b-	1r
.	.	8dd	.
.	.	8cc	.
.	.	8b-	.
.	.	8cc	.
.	.	8b-	.
.	.	8a	.
.	.	8g	.
=7	=7	=7	=7
1r	1r	8f	1r
.	.	8b-	.
.	.	8a	.
.	.	8g	.
.	.	8a	.
.	.	8g	.
.	.	8f	.
.	.	8e	.
=8	=8	=8	=8
1r	1r	8d	4r
.	.	8g	.
.	.	8f	4a
.	.	8e	.
.	.	8f	[2aa
.	.	8e	.
.	.	8d	.
.	.	8c	.
=9	=9	=9	=9
1r	1r	4Bn	4aa]
.	.	4e	8gg#
.	.	.	8ff#
.	.	4g#	8ee
.	.	.	8dd
.	.	4e	8cc
.	.	.	8bn
=10	=10	=10	=10
1r	1r	8c	8a
.	.	8d	8g#
.	.	8c	8a
.	.	8Bn	8bn
.	.	4A	8cc
.	.	.	8a
.	.	[4gn	8b
.	.	.	8cc
=11	=11	=11	=11
1r	1r	8f]	8dd
.	.	8g	8cc#
.	.	8f	8dd
.	.	8e	8ee
.	.	4d	8ff
.	.	.	8dd
.	.	4dd	8ee
.	.	.	8ff
=12	=12	=12	=12
1r	1r	4g#	4ffm
.	.	8a	4ee
.	.	8bn	.
.	.	4cc	8r
.	.	.	8ee
.	.	4b	8dd
.	.	.	8ee
=13	=13	=13	=13
1r	1r	2a	8ff
.	.	.	8aa
.	.	.	8gg
.	.	.	8ff
.	.	4r	8gg
.	.	.	8ff
.	.	4g#	8ee
.	.	.	8dd
=14	=14	=14	=14
1r	1r	2a	8cc
.	.	.	8ff
.	.	.	8ee
.	.	.	8dd
.	.	4r	8ee
.	.	.	8dd
.	.	4e	8cc
.	.	.	8b-
=15	=15	=15	=15
4r	1r	2f	8a
.	.	.	8dd
4D	.	.	8cc
.	.	.	8b-
[2d	.	4r	8cc
.	.	.	8b-
.	.	4f	8a
.	.	.	8g#
=16	=16	=16	=16
4d]	1r	2e	4a
8c#	.	.	4ee
8Bn	.	.	.
8A	.	4r	2cc#T
8G	.	.	.
8F	.	[4g	.
8E	.	.	.
=17	=17	=17	=17
8D	1r	4g]	2dd
8C#	.	.	.
8D	.	8f	.
8E	.	8g	.
8F	.	2a	4r
8D	.	.	.
8E	.	.	[4ccn
8F	.	.	.
=18	=18	=18	=18
8G	1r	2d	4cc]
8F#	.	.	.
8G	.	.	8b-
8A	.	.	8dd
8B-	.	4r	4gg
8G	.	.	.
8A	.	4g	4ee
8B-	.	.	.
=19	=19	=19	=19
4B-M	1r	4e	2cc#
4A	.	8f	.
.	.	8g	.
8r	.	4f	4r
8A	.	.	.
8G	.	4e	4cc#
8A	.	.	.
=20	=20	=20	=20
8B-	1r	4d	4dd
8d	.	.	.
8c	.	4r	4ff
8B-	.	.	.
8c	.	4r	16ee
.	.	.	16ff
8B-	.	.	8gg
8A	.	4e	[4b-
8G	.	.	.
=21	=21	=21	=21
8F	1r	4f	4a]
8B-	.	.	.
8A	.	4r	4dd
8G	.	.	.
8A	.	4r	16cc#
.	.	.	16dd
8G	.	.	8ee
8F	.	2c#	4g
8E	.	.	.
=22	=22	=22	=22
8D	4r	2d	2f
8G	.	.	.
8F	4A	.	.
8E	.	.	.
8F	[2a	4r	4r
8E	.	.	.
8D	.	4e	4ccn
8C	.	.	.
=23	=23	=23	=23
4D	4a]	4f	2bn
4BBn	8g#	4d	.
.	8f#	.	.
2E	8e	8r	4r
.	8d	8fn	.
.	8c	8e	4g#
.	8Bn	8d	.
=24	=24	=24	=24
2AA	8A	8c	[1a
.	8G#	8Bn	.
.	8A	8c	.
.	8Bn	8d	.
2r	8c	8e	.
.	8A	8c	.
.	8B	8d	.
.	8c	8e	.
=25	=25	=25	=25
8r	8d	4f	1a]
8G	8c#	.	.
8F	8d	4r	.
8E	8e	.	.
8D	8f	2r	.
8Cn	8d	.	.
8BBn	8e	.	.
8AA	8f	.	.
=26	=26	=26	=26
4.GG#T	4f	1r	8bn
.	.	.	8cc
.	4e	.	8dd
16FF#	.	.	8b
16GG#	.	.	.
8AA	8r	.	[2cc
8GGn	8e	.	.
8FFn	8d	.	.
8EE	8e	.	.
=27	=27	=27	=27
4DD	8f	1r	2cc]
.	8a	.	.
4D	8g	.	.
.	8f	.	.
4E	8g	.	2b-
.	8f	.	.
4C	8e	.	.
.	8d	.	.
=28	=28	=28	=28
4F	8c	1r	2a
.	8f	.	.
4BBn	8e	.	.
.	8d	.	.
4C#	8e	.	2g
.	8d	.	.
4AA	8c#	.	.
.	8Bn	.	.
=29	=29	=29	=29
2D	4A	1r	8f
.	.	.	8a
.	8B-	.	8g
.	8A	.	8f
4r	[2B-	.	8g
.	.	.	8f
4D	.	.	8e
.	.	.	8d
=30	=30	=30	=30
2E	4B-]	1r	8g
.	.	.	8b-
.	8c	.	8a
.	8B-	.	8g
4r	[2c	.	8a
.	.	.	8g
4C	.	.	8f
.	.	.	8e
=31	=31	=31	=31
8F	4c]	2.r	4a
8A	.	.	.
8G	4r	.	4cc
8F	.	.	.
8G	2r	.	[2ff
8F	.	.	.
8E	.	4a	.
8D	.	.	.
=32	=32	=32	=32
8G	1r	8b-	2ff]
8B-	.	8dd	.
8A	.	8cc	.
8G	.	8b-	.
8A	.	8cc	[2ee
8G	.	8b-	.
8F	.	8a	.
8E	.	8g	.
=33	=33	=33	=33
2A	1r	8f	2ee]
.	.	8a	.
.	.	8g	.
.	.	8f	.
4r	.	8g	[2dd
.	.	8f	.
4B-	.	8e	.
.	.	8d	.
=34	=34	=34	=34
4G	1r	8e	2dd]
.	.	8b-	.
4E	.	8a	.
.	.	8g	.
4A	.	8a	2cc#T
.	.	8g	.
4AA	.	8f	.
.	.	8e	.
=35	=35	=35	=35
4BB-	4r	8d	1dd
.	.	8ccn	.
4F	4D	8b-	.
.	.	8a	.
2B-T	[2d	8g	.
.	.	8f	.
.	.	8e	.
.	.	8g	.
=36	=36	=36	=36
2A	4d]	4f	1aa
.	8c#	4e	.
.	8Bn	.	.
2r	8A	4r	.
.	8G	.	.
.	8F	4cc#	.
.	8E	.	.
=37	=37	=37	=37
1r	8D	4dd	1ff
.	8C#	.	.
.	8D	4a	.
.	8E	.	.
.	8F	4dd	.
.	8D	.	.
.	8E	[4ccn	.
.	8F	.	.
=38	=38	=38	=38
1r	8G	4cc]	1dd
.	8F#	.	.
.	8G	8b-	.
.	8A	8a	.
.	8B-	4g	.
.	8G	.	.
.	8A	4fn	.
.	8B-	.	.
=39	=39	=39	=39
1r	4B-	4e	1cc#
.	4A	8f	.
.	.	8g	.
.	8r	4f	.
.	8A	.	.
.	8G	4e	.
.	8A	.	.
=40	=40	=40	=40
1r	8B-	4d	2dd
.	8d	.	.
.	8c	2g	.
.	8B-	.	.
.	8c	.	2ee
.	8B-	.	.
.	8A	4b-	.
.	8G	.	.
=41	=41	=41	=41
1r	8F	4a	[1ff
.	8B-	.	.
.	8A	4cc	.
.	8G	.	.
.	8A	4f	.
.	8G	.	.
.	8F	8a	.
.	8E	8g	.
=42	=42	=42	=42
1r	2D	8a	4ff]
.	.	8ee	.
.	.	8dd	4gg
.	.	8cc#	.
.	8r	8dd	4ff
.	8D	8ccn	.
.	8E	8b-	4ee
.	8F	8a	.
=43	=43	=43	=43
1r	8G	4b-	[1dd
.	8A	.	.
.	8G	4cc	.
.	8F	.	.
.	8G	4b-	.
.	8F	.	.
.	8E	4a	.
.	8D	.	.
=44	=44	=44	=44
1r	8E	2g	8dd]
.	8F	.	8dd
.	8E	.	8cc
.	8D	.	8b-
.	8E	2r	8cc
.	8C	.	8b-
.	8D	.	8a
.	8E	.	8g
=45	=45	=45	=45
1r	1F	4r	8a
.	.	.	8ccc
.	.	4c	8bb-
.	.	.	8aa
.	.	[2cc	8bb-
.	.	.	8aa
.	.	.	8gg
.	.	.	8ff
=46	=46	=46	=46
1r	1c	4cc]	8ee
.	.	.	8ff
.	.	8b-	4gg
.	.	8a	.
.	.	8g	4r
.	.	8f	.
.	.	8e	4gg
.	.	8d	.
=47	=47	=47	=47
1r	1A	8c	4gg
.	.	8B-	.
.	.	8c	4ff
.	.	8d	.
.	.	8e	8r
.	.	8c	8cc
.	.	8d	8b-
.	.	8e	8cc
=48	=48	=48	=48
1r	1F	8f	4a
.	.	8e	.
.	.	8f	4dd
.	.	8g	.
.	.	8a	4cc
.	.	8f	.
.	.	8g	4bn
.	.	8a	.
=49	=49	=49	=49
1r	1E	4a	4cc
.	.	4g	8b-
.	.	.	8a
.	.	8r	2b-
.	.	8g	.
.	.	8f	.
.	.	8g	.
=50	=50	=50	=50
1r	2F	8a	4a
.	.	8cc	.
.	.	8b-	4ff
.	.	8a	.
.	2G	8b-	[2dd
.	.	8a	.
.	.	8g	.
.	.	8f	.
=51	=51	=51	=51
1r	[1A	8e	8dd]
.	.	8a	8cc
.	.	8g	8b-
.	.	8f	8a
.	.	8g	8b-
.	.	8f	8a
.	.	8e	8g
.	.	8d	8f
=52	=52	=52	=52
1r	4A]	2c	8e
.	.	.	8f
.	4B-	.	8g
.	.	.	8a
.	4A	8r	[2b-
.	.	8c	.
.	4G	8d	.
.	.	8e	.
=53	=53	=53	=53
1r	4F	[2f	8b-]
.	.	.	8a
.	4d	.	8bn
.	.	.	8cc
.	4c	8f]	[2dd
.	.	8e	.
.	4Bn	8f#	.
.	.	8g#	.
=54	=54	=54	=54
1r	4A	[2a	8dd]
.	.	.	8cc
.	4fn	.	8dd
.	.	.	8ee
.	4e	8a]	[2ffn
.	.	8gn	.
.	4d	8a	.
.	.	8bn	.
=55	=55	=55	=55
1r	2c	4cc	8ff]
.	.	.	8ff
.	.	4e	8ee
.	.	.	8dd
.	2Bn	4f#	8ee
.	.	.	8dd
.	.	4g#	8cc
.	.	.	8bn
=56	=56	=56	=56
1r	2A	4a	8cc
.	.	.	8dd
.	.	4c	8cc
.	.	.	8b-
.	2G	4d	8cc
.	.	.	8b-
.	.	4e	8a
.	.	.	8g
=57	=57	=57	=57
1r	8F	4f	4a
.	8B-	.	.
.	8A	4g	4cc#
.	8G	.	.
.	8A	4f	4dd
.	8G	.	.
.	8F	4c#	4ee
.	8E	.	.
=58	=58	=58	=58
1r	8F	4c#	8a
.	8G	.	8b-
.	8F	4d	8a
.	8E	.	8g
.	8F	2r	8a
.	8E	.	8g
.	8D	.	8f
.	8C#	.	8e
=59	=59	=59	=59
4r	2D	1d	8f
.	.	.	8cc
4DD	.	.	8b-
.	.	.	8a
[2D	2r	.	8b-
.	.	.	8a
.	.	.	8g
.	.	.	8f
=60	=60	=60	=60
4D]	1r	1a	4e
8C#	.	.	4ee
8BBn	.	.	.
8AA	.	.	8r
8GG	.	.	8ee
8FF	.	.	8dd
8EE	.	.	8cc#
=61	=61	=61	=61
8DD	1r	1f	4dd
8CC#	.	.	.
8DD	.	.	4a
8EE	.	.	.
8FF	.	.	4dd
8DD	.	.	.
8EE	.	.	4ccn
8FF	.	.	.
=62	=62	=62	=62
8GG	1r	1d	4b-
8FF#	.	.	.
8GG	.	.	4a
8AA	.	.	.
8BB-	.	.	4g
8GG	.	.	.
8AA	.	.	4fn
8BB-	.	.	.
=63	=63	=63	=63
4BB-	1r	1c#	8e
.	.	.	8d
4AA	.	.	8e
.	.	.	8f
8r	.	.	8g
8AA	.	.	8e
8GG	.	.	[4a
8AA	.	.	.
=64	=64	=64	=64
8BB-	1r	2d	8a]
8D	.	.	8f
8C	.	.	[4b-
8BB-	.	.	.
8C	.	2e	8b-]
8BB-	.	.	8g
8AA	.	.	8cc
8GG	.	.	8b-
=65	=65	=65	=65
8FF	1r	[1f	8a
8BB-	.	.	8dd
8AA	.	.	8cc
8GG	.	.	8b-
8AA	.	.	8cc
8GG	.	.	8a
8FF	.	.	[4cc
8EE	.	.	.
=66	=66	=66	=66
2DD	1r	4f]	8cc]
.	.	.	8dd
.	.	4g	8cc
.	.	.	8b-
2r	.	4f	8cc
.	.	.	8b-
.	.	4e	8a
.	.	.	8g
=67	=67	=67	=67
4r	1r	8d	[1f
.	.	8e	.
4DD	.	8d	.
.	.	8c#	.
4EE	.	8d	.
.	.	8cn	.
4FF	.	8B-	.
.	.	8A	.
=68	=68	=68	=68
4GG	1r	[1Bn	8f]
.	.	.	8a
4G	.	.	8g
.	.	.	8f
4E	.	.	8g
.	.	.	8f
4G	.	.	8e
.	.	.	8d
=69	=69	=69	=69
4C	1r	8B]	[1e
.	.	8d	.
4CC	.	8c	.
.	.	8Bn	.
4DD	.	8c	.
.	.	8B-	.
4EE	.	8A	.
.	.	8G#	.
=70	=70	=70	=70
4FF	1r	4A	8e]
.	.	.	8gg
4A	.	4r	8ff
.	.	.	8ee
4D	.	2r	8ff
.	.	.	8ee
4F	.	.	8dd
.	.	.	8cc
=71	=71	=71	=71
4BBn	1r	8r	[1dd
.	.	8cc	.
4D	.	8bn	.
.	.	8a	.
4GG#	.	8b	.
.	.	8a	.
4BB	.	8g#	.
.	.	8f#	.
=72	=72	=72	=72
4EE	1r	4g#	8dd]
.	.	.	8ff
4E	.	4r	8ee
.	.	.	8dd
4F#	.	2r	8ee
.	.	.	8dd
4G#	.	.	8cc
.	.	.	8bn
=73	=73	=73	=73
[1A	1A	4r	8cc
.	.	.	8ee
.	.	4e	8dd
.	.	.	8cc
.	.	2ee	8dd
.	.	.	8cc
.	.	.	8bn
.	.	.	8a
=74	=74	=74	=74
8A]	1e	4ee	4bn
8G#	.	.	.
8A	.	8dd	4r
8F#	.	8cc	.
4G#	.	8b	2r
.	.	8a	.
4Bn	.	8g#	.
.	.	8f#	.
=75	=75	=75	=75
4Bn	1c	8e	4r
.	.	8d	.
4A	.	8e	4e
.	.	8f#	.
4r	.	8g#	2ee
.	.	8e	.
4E	.	8f#	.
.	.	8g#	.
=76	=76	=76	=76
1F	1A	8a	4ee
.	.	8g#	.
.	.	8a	4dd#
.	.	8bn	.
.	.	8cc	4r
.	.	8a	.
.	.	8b	4dd#
.	.	8cc	.
=77	=77	=77	=77
1E	1G#	4cc	8ee
.	.	.	8ff
.	.	4bn	8ee
.	.	.	8ddn
.	.	8r	8ee
.	.	8b	8dd
.	.	8a	8cc
.	.	8b	8bn
=78	=78	=78	=78
1r	2A	8cc	4a
.	.	8ee	.
.	.	8dd	4aa
.	.	8cc	.
.	2Bn	8dd	4dd
.	.	8cc	.
.	.	8bn	[4ff
.	.	8a	.
=79	=79	=79	=79
1r	[1c	8g	8ff]
.	.	8cc	8ee
.	.	8bn	8dd
.	.	8a	8cc
.	.	8b	8dd
.	.	8a	8cc
.	.	8g	8bn
.	.	8f	8a
=80	=80	=80	=80
8r	4c]	4e	2g#
8D	.	.	.
8C	4d	4f	.
8BBn	.	.	.
8C	4c	[2e	4a
8BB	.	.	.
8AA	4Bn	.	4bn
8GG#	.	.	.
=81	=81	=81	=81
4AA	8A	4e]	[1cc
.	8G#	.	.
4r	8A	4e	.
.	8Bn	.	.
2r	8c	4a	.
.	8A	.	.
.	8B	4gn	.
.	8c	.	.
=82	=82	=82	=82
1r	8d	4f#	4cc]
.	8c#	.	.
.	8d	4r	4a
.	8e	.	.
.	8f#	2r	4dd
.	8d	.	.
.	8e	.	4cc
.	8f#	.	.
=83	=83	=83	=83
1r	8G	4r	[1bn
.	8F#	.	.
.	8G	4d	.
.	8A	.	.
.	8Bn	4g	.
.	8G	.	.
.	8A	4fn	.
.	8B	.	.
=84	=84	=84	=84
1r	8c	4e	4b]
.	8Bn	.	.
.	8c	4r	4g
.	8d	.	.
.	8e	2r	4cc
.	8c	.	.
.	8d	.	4b-
.	8e	.	.
=85	=85	=85	=85
1r	4F	8r	1a
.	.	8ee	.
.	4E	8dd	.
.	.	8cc	.
.	4F#	8dd	.
.	.	8cc	.
.	4D	8bn	.
.	.	8a	.
=86	=86	=86	=86
1r	4G	8bn	1ee
.	.	8cc	.
.	4F#	8b	.
.	.	8a	.
.	4G#	8b	.
.	.	8a	.
.	4E	8g#	.
.	.	8f#	.
=87	=87	=87	=87
1r	4A	1e	8cc
.	.	.	8aa
.	8B-	.	8ggn
.	8A	.	8ffn
.	4B-	.	8gg
.	.	.	8ff
.	[4G	.	8ee
.	.	.	8dd
=88	=88	=88	=88
1r	8G]	[1a	8cc#
.	8g	.	8ee
.	8f	.	8dd
.	8e	.	8cc#
.	8f	.	8dd
.	8e	.	8cc#
.	8d	.	8bn
.	8c#	.	8a
=89	=89	=89	=89
1D	8f	4a]	4dd
.	8E	.	.
.	8F	8dd	4a
.	8G	8ee	.
.	8A	4ff	[2aa
.	8G	.	.
.	8A	8ee	.
.	8Bn	8dd	.
=90	=90	=90	=90
1A	8c#	4ee	4aa]
.	8Bn	.	.
.	8c#	4r	8gg
.	8d	.	8ff
.	8c#	2r	8ee
.	8d	.	8dd
.	[4e	.	8cc#
.	.	.	8bn
=91	=91	=91	=91
1F	4e]	2r	8a
.	.	.	8g
.	4d	.	8a
.	.	.	8bn
.	[2A	8r	8ccn
.	.	8c	8a
.	.	8d	8b
.	.	8e	8cc#
=92	=92	=92	=92
1D	4A]	4f	8dd
.	.	.	8cc#
.	4F	4r	8dd
.	.	.	8ee
.	4B-	8r	8ff
.	.	8f	8dd
.	4d	8g	8ee
.	.	8a	8ff
=93	=93	=93	=93
1C#	4G	8b-	4ff
.	.	8a	.
.	4B-	8g	4ee
.	.	8b-	.
.	8E	[2a	8r
.	8G	.	8ee
.	8F	.	8dd
.	8E	.	8ee
=94	=94	=94	=94
2D	4D	4a]	8ff
.	.	.	8aa
.	4r	2b-	8gg
.	.	.	8ff
2E	2r	.	8gg
.	.	.	8ff
.	.	8cc	8ee
.	.	8b-	8dd
=95	=95	=95	=95
[1F	4r	4a	8cc
.	.	.	8ff
.	4A	4f	8ee
.	.	.	8dd
.	2B-	4g	8ee
.	.	.	8dd
.	.	4e	8cc
.	.	.	8b-
=96	=96	=96	=96
4F]	4c	4f	8a
.	.	.	8dd
4G	4r	4r	8cc
.	.	.	8b-
4F	4r	4r	8cc
.	.	.	8b-
4E	4G	4c#	8a
.	.	.	8g
=97	=97	=97	=97
[1D	4A	4d	8f
.	.	.	8b-
.	4E	4r	8a
.	.	.	8g
.	4F	2r	8a
.	.	.	8g
.	4A	.	8f
.	.	.	8e
=98	=98	=98	=98
8D]	8B-	1r	[1d
8E-	8c	.	.
8D	8B-	.	.
8C	8A	.	.
8D	8B-	.	.
8C	8A	.	.
8BB-	8G	.	.
8AA	8F#	.	.
=99	=99	=99	=99
2BB-	1G	4r	8d]
.	.	.	8dd
.	.	4d	8cc
.	.	.	8b-
4r	.	2dd	8cc
.	.	.	8b-
4B-	.	.	8a
.	.	.	8g
=100	=100	=100	=100
4F#	1d	4dd	4a
4A	.	8cc	4r
.	.	8b-	.
4F#	.	8a	2r
.	.	8g	.
4D	.	8f#	.
.	.	8e	.
=101	=101	=101	=101
2G	1B-	8d	2r
.	.	8c#	.
.	.	8d	.
.	.	8e	.
2D	.	8f#	[2b-
.	.	8d	.
.	.	8e	.
.	.	8f#	.
=102	=102	=102	=102
4E-	1G	8g	4b-]
.	.	8f#	.
4F	.	8g	4bn
.	.	8a	.
4En	.	8b-	4cc
.	.	8g	.
4E-	.	8a	4cc#
.	.	8b-	.
=103	=103	=103	=103
2D	1F#	(4b-	8r
.	.	.	8dd
.	.	4a)	8ccn
.	.	.	8b-
8r	.	8r	4cc
8C	.	8a	.
8BB-	.	8g	4dd
8AA	.	8a	.
=104	=104	=104	=104
4GG	2G	8b-	4b-
.	.	8dd	.
4r	.	8cc	2gg
.	.	8b-	.
2r	2A	8cc	.
.	.	8b-	.
.	.	8a	8ff
.	.	8g	8ee-
=105	=105	=105	=105
4r	[1B-	8f	4dd
.	.	8b-	.
4E-	.	8a-	4ee-
.	.	8g	.
4D	.	8a-	4ff
.	.	8g	.
4G	.	8f	4r
.	.	8e-	.
=106	=106	=106	=106
8F	4B-]	2d	1r
8A-	.	.	.
8G	4c	.	.
8F	.	.	.
8G	4B-	4e-	.
8F	.	.	.
8E-	4A-	4f	.
8D	.	.	.
=107	=107	=107	=107
8E-	[1G	4B-	1r
8F	.	.	.
8E-	.	4Bn	.
8D	.	.	.
8E-	.	4c	.
8D	.	.	.
8C	.	4d	.
8BBn	.	.	.
=108	=108	=108	=108
8C	4G]	[1e-	1r
8D	.	.	.
8C	4G	.	.
8BB-	.	.	.
8C	4An	.	.
8BB-	.	.	.
8AA	4B-	.	.
8GG	.	.	.
=109	=109	=109	=109
8AA	[1c	8e-]	1r
8BB-	.	8g	.
8AA	.	8f	.
8GG	.	8e-	.
8AA	.	8f	.
8GG	.	8e-	.
8FF#	.	8d	.
8EEn	.	8c	.
=110	=110	=110	=110
2FF#	8c]	[1a	1r
.	8e-	.	.
.	8d	.	.
.	8c	.	.
4r	8d	.	.
.	8c	.	.
4F#	8B-	.	.
.	8A	.	.
=111	=111	=111	=111
4G	2B-	8a]	1r
.	.	8b-	.
4E-	.	8a	.
.	.	8g	.
4C	4c	8b-	.
.	.	8a	.
4D	4A	8g	.
.	.	8f#	.
=112	=112	=112	=112
4GG	4B-	4g	8r
.	.	.	8d
4r	4c	4r	8e
.	.	.	8f#
2r	4B-	2r	8g
.	.	.	8f#
.	4A	.	8g
.	.	.	8a
=113	=113	=113	=113
4r	2G	1r	8b-
.	.	.	8g
4F	.	.	8a
.	.	.	8bn
4E-	4A	.	8cc
.	.	.	8b
4D	4Bn	.	8cc
.	.	.	8dd
=114	=114	=114	=114
4C	4c	8r	4ee-
.	.	8Bn	.
4r	4r	8c	4dd
.	.	8d	.
2r	2r	8e-	4cc
.	.	8c	.
.	.	8d	4b-
.	.	8en	.
=115	=115	=115	=115
8r	1r	[1f	8a
8E	.	.	8g
8F	.	.	8a
8G	.	.	8b-
8A	.	.	8cc
8F	.	.	8a
8G	.	.	8bn
8A	.	.	8cc#
=116	=116	=116	=116
4B-	8r	2f]	4dd
.	8cn	.	.
4r	8B-	.	2g
.	8A	.	.
2r	8G	2e	.
.	8B-	.	.
.	8A	.	[4f
.	8G	.	.
=117	=117	=117	=117
8r	4F	4.d	8f]
8G	.	.	8e
8F	4r	.	2d
8E	.	8c	.
8D	2r	2B-	.
8F	.	.	.
8E	.	.	[4g
8D	.	.	.
=118	=118	=118	=118
4C#	1r	4A	8g]
.	.	.	8b-
4E	.	4r	8a
.	.	.	8g
4C#	.	2r	8a
.	.	.	8g
4AA	.	.	8f
.	.	.	8e
=119	=119	=119	=119
4D	4r	1d	8f
.	.	.	8e
4Cn	4D	.	8f
.	.	.	8a
2BB-	[2d	.	8g
.	.	.	8f
.	.	.	8e
.	.	.	8d
=120	=120	=120	=120
2AA	4d]	1a	2e
.	8c#	.	.
.	8Bn	.	.
4r	8A	.	4r
.	8G	.	.
4AA	8F	.	4cc#
.	8E	.	.
=121	=121	=121	=121
[1BB-	8D	1f	[2dd
.	8C#	.	.
.	8D	.	.
.	8E	.	.
.	8F	.	8dd]
.	8D	.	8ccn
.	8E	.	8b-
.	8F	.	8a
=122	=122	=122	=122
2BB-]	8G	1d	[1g
.	8F#	.	.
.	8G	.	.
.	8A	.	.
8r	8B-	.	.
8E	8G	.	.
8Fn	8A	.	.
8G	8B-	.	.
=123	=123	=123	=123
8AA	4B-	1c#	1g]
8E	.	.	.
8A	4A	.	.
8G	.	.	.
4F	8r	.	.
.	8A	.	.
4E	8G	.	.
.	8A	.	.
=124	=124	=124	=124
2D	8B-	2d	2f
.	8d	.	.
.	8c	.	.
.	8B-	.	.
4r	8c	2e	4r
.	8B-	.	.
4C#	8A	.	4b-
.	8G	.	.
=125	=125	=125	=125
2D	8F	[1f	2a
.	8B-	.	.
.	8A	.	.
.	8G	.	.
4r	8A	.	4r
.	8G	.	.
4AA	8F	.	4cc#
.	8E	.	.
=126	=126	=126	=126
2BB-	2D	4f]	8dd
.	.	.	8ccn
.	.	4g	8b-
.	.	.	8a
4r	4r	4f	8b-
.	.	.	8a
4C	4A	4e-	8g
.	.	.	8f#
=127	=127	=127	=127
8BB-	2B-	2d	[1g
8C	.	.	.
8BB-	.	.	.
8AA	.	.	.
8BB-	4r	4r	.
8AA	.	.	.
8GG	4B-	4d	.
8FF	.	.	.
=128	=128	=128	=128
4EE	4C#	4e	8g]
.	.	.	8b-
4E	4G	4c#	8a
.	.	.	8g
4F	4F	[2d	8a
.	.	.	8g
4G	4B-	.	8f
.	.	.	8e
=129	=129	=129	=129
4A	2.A	2d]	4.f
4G	.	.	.
.	.	.	8g
4A	.	2c#	4.eT
4AA	4G	.	.
.	.	.	8d
=130	=130	=130	=130
1D;	1F#;	1A;	1d;
====	====	====	====
*-	*-	*-	*-
